X:50
T: Old Connemara Stockings
S: Paddy O'Sullivan (fiddle), north Kerry
Z: Paul de Grae
R: reel
M: 4/4
L: 1/8
N: Called Quinn's Reel in CRE 2, no. 171, from Denis Murphy,
N: and on the RTE recording of Padraig O'Keeffe
K: D
FEFA ~B2 AB |d2 cd BE ~E2 |FEFA B2 Bc |1 dBAG FD D2 :|2\
dBAG (3FED FA ||
d2 fd Adfe |~d2 fA ~B2 AB |d2 fd Adfd |(3efg fg ed ~B2 |
d2 fd Adfd |Adfd eB ~B2 |g2 fg (3efg fe |dBAG FD D2 ||
